apps/site/public/icons/companies/replit.svg

<svg width="48" height="48" viewBox="0 0 48 48" fill="none" xmlns="http://www.w3.org/2000/svg">
<path d="M23.3447 16.2288H7.95306C6.43742 16.2288 5.23535 15.0216 5.23535 13.5577V4.6711C5.23535 3.18145 6.46355 2 7.95306 2H20.627C22.1426 2 23.3447 3.20713 23.3447 4.6711V16.2288Z" fill="#FD5402"/>
<path d="M39.8527 31.7284H23.3615V16.2061H39.8527C41.4485 16.2061 42.7645 17.5206 42.7645 19.1148V28.8198C42.7645 30.4419 41.4485 31.7284 39.8527 31.7284Z" fill="#FD5402"/>
<path d="M20.627 46H7.95306C6.46355 46 5.23535 44.7951 5.23535 43.3336V34.4375C5.23535 32.9762 6.46355 31.7711 7.95306 31.7711H23.3447V43.3336C23.3447 44.7951 22.1165 46 20.627 46Z" fill="#FD5402"/>
</svg>

<svg xmlns="http://www.w3.org/2000/svg" width="48" height="48" fill="none" viewBox="0 0 48 48"><path fill="#fd5402" d="M23.345 16.229H7.953c-1.516 0-2.718-1.207-2.718-2.671V4.67C5.235 3.181 6.464 2 7.953 2h12.674c1.516 0 2.718 1.207 2.718 2.671zm16.508 15.499H23.36V16.206h16.492a2.926 2.926 0 0 1 2.911 2.909v9.705a2.91 2.91 0 0 1-2.911 2.908M20.627 46H7.953c-1.49 0-2.718-1.205-2.718-2.666v-8.897c0-1.46 1.229-2.666 2.718-2.666h15.392v11.563c0 1.461-1.229 2.666-2.718 2.666"/></svg>
